build/system/CalculateSolid.svg

<svg xmlns="http://www.w3.org/2000/svg" fill="none" viewBox="0 0 24 24" focusable="false"><path d="M0 0H24V24H0z"/><path fill="#74767B" fill-rule="evenodd" d="M3 10.6463C3 11.0329 3.3134 11.3463 3.7 11.3463L10.6522 11.3463C11.0388 11.3463 11.3522 11.0329 11.3522 10.6463L11.3522 3.7C11.3522 3.3134 11.0388 3 10.6522 3L6 3C4.4467 3 3.16912 4.1805 3.01549 5.69327C3.00525 5.79412 3 5.89645 3 6L3 10.6463ZM21 10.6463C21 11.0329 20.6866 11.3463 20.3 11.3463L13.3522 11.3463C12.9656 11.3463 12.6522 11.0329 12.6522 10.6463L12.6522 3.7C12.6522 3.3134 12.9656 3 13.3522 3L18 3C19.6569 3 21 4.34315 21 6L21 10.6463ZM7.1889 9.53737C6.82991 9.53737 6.5389 9.24635 6.5389 8.88737L6.5389 8.03729L5.6889 8.03729C5.32991 8.03729 5.0389 7.74628 5.0389 7.38729C5.0389 7.02831 5.32991 6.73729 5.6889 6.73729L6.5389 6.73729L6.5389 5.88737C6.5389 5.52838 6.82991 5.23737 7.1889 5.23737C7.54788 5.23737 7.8389 5.52838 7.8389 5.88737L7.8389 6.73729L8.6889 6.73729C9.04788 6.73729 9.3389 7.02831 9.3389 7.38729C9.3389 7.74628 9.04788 8.03729 8.6889 8.03729L7.8389 8.03729L7.8389 8.88737C7.8389 9.24635 7.54788 9.53737 7.1889 9.53737ZM15.1811 7.38737C15.1811 7.02838 15.4721 6.73737 15.8311 6.73737L17.8311 6.73737C18.1901 6.73737 18.4811 7.02838 18.4811 7.38737C18.4811 7.74635 18.1901 8.03737 17.8311 8.03737L15.8311 8.03737C15.4721 8.03737 15.1811 7.74635 15.1811 7.38737ZM10.6522 21C11.0388 21 11.3522 20.6866 11.3522 20.3L11.3522 13.3463C11.3522 12.9597 11.0388 12.6463 10.6522 12.6463L3.7 12.6463C3.3134 12.6463 3 12.9597 3 13.3463L3 18C3 19.6569 4.34315 21 6 21L10.6522 21ZM12.6522 20.3C12.6522 20.6866 12.9656 21 13.3522 21L18 21C19.6569 21 21 19.6569 21 18L21 13.3463C21 12.9597 20.6866 12.6463 20.3 12.6463L13.3522 12.6463C12.9656 12.6463 12.6522 12.9597 12.6522 13.3463L12.6522 20.3ZM15.1811 15.6762C15.1811 15.3173 15.4721 15.0262 15.8311 15.0262L17.8311 15.0262C18.1901 15.0262 18.4811 15.3173 18.4811 15.6762C18.4811 16.0352 18.1901 16.3262 17.8311 16.3262L15.8311 16.3262C15.4721 16.3262 15.1811 16.0352 15.1811 15.6762ZM8.70918 18.2573C8.45534 18.5111 8.04378 18.5111 7.78994 18.2573L7.18885 17.6562L6.58781 18.2572C6.33397 18.511 5.92241 18.511 5.66857 18.2572C5.41473 18.0034 5.41473 17.5918 5.66857 17.338L6.26961 16.7369L5.66862 16.1359C5.41478 15.8821 5.41478 15.4705 5.66862 15.2167C5.92246 14.9629 6.33402 14.9629 6.58786 15.2167L7.18885 15.8177L7.78989 15.2166C8.04373 14.9628 8.45529 14.9628 8.70913 15.2166C8.96297 15.4705 8.96297 15.882 8.70913 16.1359L8.10809 16.7369L8.70918 17.338C8.96302 17.5919 8.96302 18.0034 8.70918 18.2573ZM15.8311 17.0624C15.4721 17.0624 15.1811 17.3534 15.1811 17.7124C15.1811 18.0714 15.4721 18.3624 15.8311 18.3624L17.8311 18.3624C18.1901 18.3624 18.4811 18.0714 18.4811 17.7124C18.4811 17.3534 18.1901 17.0624 17.8311 17.0624L15.8311 17.0624Z"/></svg>

<svg xmlns="http://www.w3.org/2000/svg" fill="none" viewBox="0 0 24 24" focusable="false"><path fill="#74767B" fill-rule="evenodd" d="M3 10.64c0 .39.31.7.7.7h6.95c.38 0 .7-.31.7-.7V3.7c0-.39-.32-.7-.7-.7H6C4.44 3 3.16 4.18 3.01 5.69 3 5.79 3 5.89 3 6zm17.29.7c.39 0 .71-.31.71-.7V6c0-1.66-1.35-3-3-3h-4.65c-.39 0-.7.31-.7.7v6.94c0 .39.31.7.7.7zM7.18 9.53c-.35 0-.65-.29-.65-.65v-.85h-.85c-.35 0-.65-.29-.65-.65s.3-.65.65-.65h.85v-.85c0-.36.3-.65.65-.65.36 0 .65.29.65.65v.85h.85c.36 0 .65.29.65.65s-.29.65-.65.65h-.85v.85c0 .36-.29.65-.65.65m8.65-2.8c-.36 0-.65.29-.65.65s.29.65.65.65h2c.35 0 .65-.29.65-.65s-.3-.65-.65-.65zM10.65 21c.38 0 .7-.32.7-.71v-6.95c0-.39-.32-.7-.7-.7H3.7c-.39 0-.7.31-.7.7V18c0 1.65 1.34 3 3 3zm2-.71c0 .39.31.71.7.71H18c1.65 0 3-1.35 3-3v-4.66c0-.39-.32-.7-.71-.7h-6.94c-.39 0-.7.31-.7.7zm2.53-4.62c0-.36.29-.65.65-.65h2c.35 0 .65.29.65.65s-.3.65-.65.65h-2c-.36 0-.65-.29-.65-.65M8.7 18.25c-.25.26-.66.26-.91 0l-.61-.6-.6.6a.64.64 0 0 1-.92 0 .66.66 0 0 1 0-.92l.6-.6-.6-.6a.66.66 0 0 1 0-.92c.26-.25.67-.25.92 0l.6.6.61-.6c.25-.25.66-.25.91 0 .26.26.26.67 0 .92l-.6.6.6.6c.26.26.26.67 0 .92m7.13-1.19c-.36 0-.65.29-.65.65s.29.65.65.65h2c.35 0 .65-.29.65-.65s-.3-.65-.65-.65z"/></svg>
